src/assets/stars.svg

<svg width="500" height="764" fill="none" xmlns="http://www.w3.org/2000/svg"><path d="M259.384-85.0711c-.2-3.0824 4.271-3.7166 4.936-.7001l12.328 55.9238c.805 3.655 6.013 3.6649 6.833.013l12.54-55.8764c.676-3.014 5.145-2.3628 4.933.7189l-3.927 57.1315c-.257 3.7339 4.737 5.2106 6.552 1.9376l27.775-50.08c1.498-2.7014 5.602-.8175 4.531 2.0797l-19.864 53.7107c-1.299 3.5103 3.077 6.3342 5.741 3.7051l40.759-40.2264c2.198-2.1698 5.605.7941 3.761 3.272L332.09-7.5231c-2.234 3.0024 1.169 6.9447 4.465 5.1726l50.441-27.1139c2.721-1.4626 5.155 2.3412 2.687 4.1992L343.934 9.1797c-2.99 2.2512-.835 6.9924 2.827 6.2209l56.036-11.8049c3.023-.6367 4.287 3.6988 1.396 4.7863l-53.6 20.1606c-3.503 1.3176-2.772 6.4738.959 6.7653l57.093 4.4606c3.079.2406 3.07 4.7567-.01 4.9855l-57.109 4.2431c-3.732.2773-4.483 5.4306-.985 6.7616l53.523 20.3647c2.887 1.0984 1.606 5.4291-1.414 4.7809L346.659 68.886c-3.659-.7854-5.832 3.9476-2.85 6.2101l45.617 34.6189c2.461 1.867.012 5.662-2.703 4.189l-50.337-27.3059c-3.29-1.7846-6.708 2.1447-4.485 5.1555l34.017 46.0684c1.835 2.485-1.584 5.436-3.774 3.258l-40.605-40.382c-2.654-2.6387-7.041.168-5.756 3.684l19.66 53.786c1.06 2.901-3.051 4.769-4.539 2.062l-27.584-50.185c-1.802-3.28-6.802-1.823-6.559 1.912l3.709 57.146c.201 3.083-4.271 3.717-4.936.7l-12.327-55.923c-.806-3.655-6.013-3.665-6.833-.013l-12.54 55.876c-.677 3.014-5.146 2.363-4.934-.719l3.928-57.131c.257-3.734-4.737-5.211-6.553-1.938l-27.774 50.08c-1.498 2.701-5.603.817-4.531-2.08l19.864-53.71c1.298-3.511-3.077-6.3346-5.741-3.706l-40.759 40.227c-2.198 2.17-5.606-.794-3.761-3.272l34.191-45.9387c2.235-3.0024-1.168-6.9447-4.465-5.1726l-50.44 27.1143c-2.721 1.462-5.155-2.342-2.688-4.2l45.749-34.4445c2.99-2.2512.836-6.9924-2.826-6.2209l-56.037 11.8049c-3.022.6367-4.286-3.6988-1.395-4.7863l53.6-20.1606c3.503-1.3177 2.772-6.4738-.96-6.7653l-57.092-4.4606c-3.079-.2406-3.071-4.7567.01-4.9855l57.109-4.2431c3.732-.2773 4.483-5.4306.985-6.7616L155.791 7.9088c-2.887-1.0984-1.607-5.4291 1.414-4.7809l55.991 12.0183c3.659.7854 5.831-3.9476 2.85-6.2101l-45.618-34.619c-2.46-1.8673-.011-5.6618 2.704-4.1889l50.337 27.3059c3.29 1.7846 6.708-2.1447 4.484-5.1555L193.937-53.79c-1.835-2.4849 1.584-5.4358 3.774-3.2576l40.605 40.3814c2.654 2.6391 7.04-.168 5.755-3.6833l-19.659-53.786c-1.061-2.9012 3.051-4.7694 4.539-2.0624l27.583 50.1854c1.803 3.28 6.803 1.8223 6.56-1.9125l-3.71-57.1461Z" stroke="white"/><path d="M18.7508 352.109c-1.5769-5.953 4.7472-10.895 10.1421-7.925L117.035 392.7c6.187 3.405 13.96 1.249 17.509-4.857l50.554-86.989c3.094-5.324 11.06-4.347 12.775 1.568l28.02 96.632c1.967 6.782 8.988 10.754 15.815 8.946l97.258-25.764c5.952-1.577 10.894 4.748 7.924 10.142l-48.516 88.143c-3.405 6.186-1.249 13.96 4.857 17.508l86.989 50.554c5.325 3.095 4.347 11.061-1.568 12.776l-96.632 28.02c-6.782 1.966-10.754 8.988-8.946 15.814l25.764 97.258c1.577 5.953-4.748 10.894-10.142 7.925l-88.143-48.516c-6.186-3.406-13.96-1.249-17.508 4.856l-50.554 86.99c-3.095 5.324-11.061 4.347-12.776-1.568l-28.019-96.632c-1.9671-6.783-8.9886-10.755-15.815-8.946l-97.258 25.763c-5.9528 1.577-10.8944-4.747-7.9249-10.142l48.5163-88.142c3.4052-6.187 1.2489-13.96-4.8567-17.509l-86.9895-50.554c-5.3243-3.094-4.3466-11.06 1.5678-12.775l96.6322-28.02c6.7825-1.967 10.7545-8.988 8.9462-15.814l-25.7636-97.258Z" stroke="white" stroke-width="6"/><path d="M497.009 113.249c.281-3.696 5.701-3.696 5.982 0l6.394 83.897c.244 3.199 4.663 3.834 5.798.834l29.771-78.697c1.312-3.467 6.511-1.94 5.74 1.685l-17.501 82.3c-.667 3.138 3.393 4.992 5.328 2.433l50.737-67.122c2.235-2.957 6.794-.027 5.033 3.235l-39.979 74.035c-1.525 2.823 1.849 5.746 4.426 3.836l67.592-50.109c2.978-2.207 6.527 1.888 3.918 4.522l-59.218 59.773c-2.258 2.279.156 6.034 3.167 4.927l78.971-29.036c3.479-1.279 5.73 3.65 2.485 5.442l-73.659 40.668c-2.808 1.551-1.551 5.834 1.65 5.62l83.953-5.611c3.699-.247 4.47 5.117.852 5.922l-82.133 18.269c-3.132.696-3.132 5.16 0 5.856l82.133 18.269c3.618.805 2.847 6.169-.852 5.922l-83.953-5.611c-3.201-.214-4.458 4.069-1.65 5.62l73.659 40.668c3.245 1.792.994 6.721-2.485 5.442l-78.971-29.036c-3.011-1.107-5.425 2.648-3.167 4.927l59.218 59.773c2.609 2.634-.94 6.729-3.918 4.522l-67.592-50.109c-2.577-1.91-5.951 1.013-4.426 3.836l39.979 74.035c1.761 3.262-2.798 6.192-5.033 3.235l-50.737-67.122c-1.935-2.559-5.995-.705-5.328 2.433l17.501 82.3c.771 3.625-4.428 5.152-5.74 1.685l-29.771-78.697c-1.135-3-5.554-2.365-5.798.834l-6.394 83.897c-.281 3.696-5.701 3.696-5.982 0l-6.394-83.897c-.244-3.199-4.663-3.834-5.798-.834l-29.771 78.697c-1.312 3.467-6.511 1.94-5.74-1.685l17.501-82.3c.667-3.138-3.393-4.992-5.328-2.433l-50.737 67.122c-2.235 2.957-6.794.027-5.033-3.235l39.979-74.035c1.525-2.823-1.849-5.746-4.426-3.836l-67.592 50.109c-2.978 2.207-6.527-1.888-3.918-4.522l59.218-59.773c2.258-2.279-.156-6.034-3.167-4.927l-78.971 29.036c-3.479 1.279-5.73-3.65-2.485-5.442l73.659-40.668c2.808-1.551 1.551-5.834-1.65-5.62l-83.953 5.611c-3.699.247-4.47-5.117-.852-5.922l82.133-18.269c3.132-.696 3.132-5.16 0-5.856l-82.133-18.269c-3.618-.805-2.847-6.169.852-5.922l83.953 5.611c3.201.214 4.458-4.069 1.65-5.62l-73.659-40.668c-3.245-1.792-.994-6.721 2.485-5.442l78.971 29.036c3.011 1.107 5.425-2.648 3.167-4.927l-59.218-59.773c-2.609-2.634.94-6.729 3.918-4.522l67.592 50.109c2.577 1.91 5.951-1.013 4.426-3.836l-39.979-74.035c-1.761-3.262 2.798-6.192 5.033-3.235l50.737 67.122c1.935 2.559 5.995.705 5.328-2.433l-17.501-82.3c-.771-3.625 4.428-5.152 5.74-1.685l29.771 78.697c1.135 3 5.554 2.365 5.798-.834l6.394-83.897Z" fill="white"/></svg>

<svg width="500" height="764" viewBox="0 0 500 764" fill="none" xmlns="http://www.w3.org/2000/svg">
<path d="M259.384 -85.0711C259.184 -88.1535 263.655 -88.7877 264.32 -85.7712L276.648 -29.8474C277.453 -26.1924 282.661 -26.1825 283.481 -29.8344L296.021 -85.7108C296.697 -88.7248 301.166 -88.0736 300.954 -84.9919L297.027 -27.8604C296.77 -24.1265 301.764 -22.6498 303.579 -25.9228L331.354 -76.0028C332.852 -78.7042 336.956 -76.8203 335.885 -73.9231L316.021 -20.2124C314.722 -16.7021 319.098 -13.8782 321.762 -16.5073L362.521 -56.7337C364.719 -58.9035 368.126 -55.9396 366.282 -53.4617L332.09 -7.52306C329.856 -4.5207 333.259 -0.578435 336.555 -2.3505L386.996 -29.4644C389.717 -30.927 392.151 -27.1232 389.683 -25.2652L343.934 9.17968C340.944 11.4309 343.099 16.1721 346.761 15.4006L402.797 3.59574C405.82 2.95898 407.084 7.29451 404.193 8.382L350.593 28.5426C347.09 29.8602 347.821 35.0164 351.552 35.3079L408.645 39.7685C411.724 40.0091 411.715 44.5252 408.635 44.754L351.526 48.9971C347.794 49.2744 347.043 54.4277 350.541 55.7587L404.064 76.1234C406.951 77.2218 405.67 81.5525 402.65 80.9043L346.659 68.886C343 68.1006 340.827 72.8336 343.809 75.0961L389.426 109.715C391.887 111.582 389.438 115.377 386.723 113.904L336.386 86.5981C333.096 84.8135 329.678 88.7428 331.901 91.7536L365.918 137.822C367.753 140.307 364.334 143.258 362.144 141.08L321.539 100.698C318.885 98.0593 314.498 100.866 315.783 104.382L335.443 158.168C336.503 161.069 332.392 162.937 330.904 160.23L303.32 110.045C301.518 106.765 296.518 108.222 296.761 111.957L300.47 169.103C300.671 172.186 296.199 172.82 295.534 169.803L283.207 113.88C282.401 110.225 277.194 110.215 276.374 113.867L263.834 169.743C263.157 172.757 258.688 172.106 258.9 169.024L262.828 111.893C263.085 108.159 258.091 106.682 256.275 109.955L228.501 160.035C227.003 162.736 222.898 160.852 223.97 157.955L243.834 104.245C245.132 100.734 240.757 97.9104 238.093 100.539L197.334 140.766C195.136 142.936 191.728 139.972 193.573 137.494L227.764 91.5553C229.999 88.5529 226.596 84.6106 223.299 86.3827L172.859 113.497C170.138 114.959 167.704 111.155 170.171 109.297L215.92 74.8525C218.91 72.6013 216.756 67.8601 213.094 68.6316L157.057 80.4365C154.035 81.0732 152.771 76.7377 155.662 75.6502L209.262 55.4896C212.765 54.1719 212.034 49.0158 208.302 48.7243L151.21 44.2637C148.131 44.0231 148.139 39.507 151.22 39.2782L208.329 35.0351C212.061 34.7578 212.812 29.6045 209.314 28.2735L155.791 7.90884C152.904 6.81036 154.184 2.47967 157.205 3.12793L213.196 15.1462C216.855 15.9316 219.027 11.1986 216.046 8.93607L170.428 -25.6829C167.968 -27.5502 170.417 -31.3447 173.132 -29.8718L223.469 -2.56592C226.759 -0.781307 230.177 -4.71057 227.953 -7.72143L193.937 -53.79C192.102 -56.2749 195.521 -59.2258 197.711 -57.0476L238.316 -16.6662C240.97 -14.0271 245.356 -16.8342 244.071 -20.3495L224.412 -74.1355C223.351 -77.0367 227.463 -78.9049 228.951 -76.1979L256.534 -26.0125C258.337 -22.7325 263.337 -24.1902 263.094 -27.925L259.384 -85.0711Z" stroke="white"/>
<path d="M18.7508 352.109C17.1739 346.156 23.498 341.214 28.8929 344.184L117.035 392.7C123.222 396.105 130.995 393.949 134.544 387.843L185.098 300.854C188.192 295.53 196.158 296.507 197.873 302.422L225.893 399.054C227.86 405.836 234.881 409.808 241.708 408L338.966 382.236C344.918 380.659 349.86 386.984 346.89 392.378L298.374 480.521C294.969 486.707 297.125 494.481 303.231 498.029L390.22 548.583C395.545 551.678 394.567 559.644 388.652 561.359L292.02 589.379C285.238 591.345 281.266 598.367 283.074 605.193L308.838 702.451C310.415 708.404 304.09 713.345 298.696 710.376L210.553 661.86C204.367 658.454 196.593 660.611 193.045 666.716L142.491 753.706C139.396 759.03 131.43 758.053 129.715 752.138L101.696 655.506C99.7289 648.723 92.7074 644.751 85.881 646.56L-11.377 672.323C-17.3298 673.9 -22.2714 667.576 -19.3019 662.181L29.2144 574.039C32.6196 567.852 30.4633 560.079 24.3577 556.53L-62.6318 505.976C-67.9561 502.882 -66.9784 494.916 -61.064 493.201L35.5682 465.181C42.3507 463.214 46.3227 456.193 44.5144 449.367L18.7508 352.109Z" stroke="white" stroke-width="6"/>
<path d="M497.009 113.249C497.29 109.553 502.71 109.553 502.991 113.249L509.385 197.146C509.629 200.345 514.048 200.98 515.183 197.98L544.954 119.283C546.266 115.816 551.465 117.343 550.694 120.968L533.193 203.268C532.526 206.406 536.586 208.26 538.521 205.701L589.258 138.579C591.493 135.622 596.052 138.552 594.291 141.814L554.312 215.849C552.787 218.672 556.161 221.595 558.738 219.685L626.33 169.576C629.308 167.369 632.857 171.464 630.248 174.098L571.03 233.871C568.772 236.15 571.186 239.905 574.197 238.798L653.168 209.762C656.647 208.483 658.898 213.412 655.653 215.204L581.994 255.872C579.186 257.423 580.443 261.706 583.644 261.492L667.597 255.881C671.296 255.634 672.067 260.998 668.449 261.803L586.316 280.072C583.184 280.768 583.184 285.232 586.316 285.928L668.449 304.197C672.067 305.002 671.296 310.366 667.597 310.119L583.644 304.508C580.443 304.294 579.186 308.577 581.994 310.128L655.653 350.796C658.898 352.588 656.647 357.517 653.168 356.238L574.197 327.202C571.186 326.095 568.772 329.85 571.03 332.129L630.248 391.902C632.857 394.536 629.308 398.631 626.33 396.424L558.738 346.315C556.161 344.405 552.787 347.328 554.312 350.151L594.291 424.186C596.052 427.448 591.493 430.378 589.258 427.421L538.521 360.299C536.586 357.74 532.526 359.594 533.193 362.732L550.694 445.032C551.465 448.657 546.266 450.184 544.954 446.717L515.183 368.02C514.048 365.02 509.629 365.655 509.385 368.854L502.991 452.751C502.71 456.447 497.29 456.447 497.009 452.751L490.615 368.854C490.371 365.655 485.952 365.02 484.817 368.02L455.046 446.717C453.734 450.184 448.535 448.657 449.306 445.032L466.807 362.732C467.474 359.594 463.414 357.74 461.479 360.299L410.742 427.421C408.507 430.378 403.948 427.448 405.709 424.186L445.688 350.151C447.213 347.328 443.839 344.405 441.262 346.315L373.67 396.424C370.692 398.631 367.143 394.536 369.752 391.902L428.97 332.129C431.228 329.85 428.814 326.095 425.803 327.202L346.832 356.238C343.353 357.517 341.102 352.588 344.347 350.796L418.006 310.128C420.814 308.577 419.557 304.294 416.356 304.508L332.403 310.119C328.704 310.366 327.933 305.002 331.551 304.197L413.684 285.928C416.816 285.232 416.816 280.768 413.684 280.072L331.551 261.803C327.933 260.998 328.704 255.634 332.403 255.881L416.356 261.492C419.557 261.706 420.814 257.423 418.006 255.872L344.347 215.204C341.102 213.412 343.353 208.483 346.832 209.762L425.803 238.798C428.814 239.905 431.228 236.15 428.97 233.871L369.752 174.098C367.143 171.464 370.692 167.369 373.67 169.576L441.262 219.685C443.839 221.595 447.213 218.672 445.688 215.849L405.709 141.814C403.948 138.552 408.507 135.622 410.742 138.579L461.479 205.701C463.414 208.26 467.474 206.406 466.807 203.268L449.306 120.968C448.535 117.343 453.734 115.816 455.046 119.283L484.817 197.98C485.952 200.98 490.371 200.345 490.615 197.146L497.009 113.249Z" fill="white"/>
</svg>
